X:2
T:La Danse Inverseé
C:T.S. Macdonald
M:C|
L:1/8
K:G
%%graceslurs 0
b>{ag}f g>d B<GG>B | A<=fc<f A<=FF>A | G{A}>B{c}d>c B<GG>B | (3FDF (3ABc B<G G2 |
(b/a/)g/f/ g>d B<GG>B | A<=fc<f A<=FF>A | B<Gc<A d<Be>B | (3cdB (3Adf g<G G2 ||
G<DD>G A>G=F>E | =F<CC>F (3CFA (3cA^F | G<DD>G B>GB<g   | (3cBc (3dcA B<G G2 |
G<DD>G A>G=F>E | =F<CC>F (3CFA (3cA^F | G<DB<G d<Bg>B   | (3cBc (3ABc B<G G2 |]

